public/assets/images/icons/icon-coin3.svg

<svg width="45" height="46" viewBox="0 0 45 46" fill="none" xmlns="http://www.w3.org/2000/svg">
<path d="M34.288 17.0397C30.9239 9.92865 22.7835 6.72491 16.1058 9.88397C9.42811 13.043 6.74193 21.3686 10.106 28.4797C13.4701 35.5908 21.6106 38.7945 28.2883 35.6355C34.966 32.4764 37.6521 24.1508 34.288 17.0397Z" fill="#E9B522"/>
<path d="M24.2096 39.5598C15.3495 40.2649 7.23863 33.3004 6.12925 24.0349C5.01987 14.7693 11.3255 6.65772 20.1857 5.95257C29.0458 5.24745 37.1567 12.2119 38.2661 21.4774C39.3755 30.7429 33.0698 38.8547 24.2096 39.5598ZM20.5155 8.70715C13.1078 9.29667 7.83585 16.0786 8.76337 23.8252C9.6909 31.5718 16.4722 37.3947 23.8799 36.8051C31.2876 36.2156 36.5596 29.4336 35.6321 21.687C34.7044 13.9404 27.9232 8.11763 20.5155 8.70715Z" fill="#F7DE61"/>
<path d="M7.10909 23.9569C6.02021 14.8628 12.0748 6.88115 20.6766 5.92215C20.5132 5.92994 20.3496 5.93958 20.1857 5.95256C11.3256 6.65768 5.01987 14.7693 6.12925 24.0349C7.23863 33.3004 15.3495 40.2649 24.2096 39.5598C24.3736 39.5467 24.5364 39.5303 24.6986 39.5122C16.0317 39.9276 8.19804 33.051 7.10909 23.9569Z" fill="#FFF2BD"/>
<path d="M20.5159 8.70714C20.3723 8.71857 20.2298 8.73316 20.0879 8.74919C27.3263 8.41319 33.865 14.1588 34.7746 21.7552C35.6842 29.3517 30.6319 36.0199 23.4505 36.8314C23.5935 36.8247 23.7367 36.8166 23.8803 36.8052C31.288 36.2157 36.56 29.4336 35.6325 21.687C34.7047 13.9403 27.9235 8.11761 20.5159 8.70714Z" fill="#CE9811"/>
<path d="M28.8145 26.6737C28.4918 27.6127 27.8296 28.4055 26.8273 29.0516L27.7928 31.0086L26.048 31.7847L25.1001 29.863C24.3069 30.1441 23.5217 30.3074 22.7443 30.352C21.9666 30.3971 21.2284 30.317 20.5294 30.112L20.4647 28.1202C21.8511 28.4781 23.1403 28.442 24.3327 28.0117L22.5239 24.345C21.6614 24.4853 20.9081 24.5515 20.2649 24.544C19.6215 24.5366 19.0053 24.373 18.4173 24.0545C17.829 23.7357 17.3465 23.1944 16.9697 22.4305C16.6566 21.7958 16.5249 21.1486 16.5748 20.4886C16.6248 19.8289 16.8407 19.2026 17.2229 18.6098C17.6051 18.0173 18.1321 17.514 18.8041 17.1002L17.8388 15.1435L19.5835 14.3674L20.5401 16.3064C21.242 16.0947 21.9449 15.9827 22.6482 15.9707C23.3516 15.9589 23.9955 16.0524 24.5802 16.2506L24.645 18.2424C23.4646 17.9077 22.3549 17.8855 21.3161 18.1753L23.2032 22.0006C24.0658 21.861 24.8043 21.7935 25.4193 21.7996C26.0341 21.8054 26.6256 21.9615 27.1939 22.2676C27.762 22.5738 28.2288 23.097 28.594 23.8374C29.0636 24.7896 29.137 25.7351 28.8145 26.6737ZM20.0171 22.139C20.4155 22.2702 20.9089 22.3121 21.4978 22.2651L19.8193 18.8628C19.3812 19.1869 19.0977 19.5639 18.9691 19.9934C18.8403 20.4237 18.8893 20.8675 19.1154 21.3258C19.3184 21.7373 19.6189 22.0082 20.0171 22.139ZM26.5981 26.1766C26.7067 25.7773 26.6482 25.3481 26.4222 24.8897C26.2425 24.5256 25.9719 24.2877 25.611 24.1758C25.25 24.0643 24.7923 24.0385 24.2379 24.0984L25.7946 27.254C26.2213 26.9352 26.4891 26.5762 26.5981 26.1766Z" fill="#CE9811"/>
<path d="M19.4897 21.8753C19.8881 22.0065 20.3815 22.0483 20.9704 22.0013L19.292 18.5991C18.8537 18.9232 18.5703 19.3002 18.4417 19.7297C18.3129 20.1599 18.3619 20.6037 18.588 21.062C18.791 21.4735 19.0915 21.7444 19.4897 21.8753ZM26.0707 25.9129C26.1794 25.5135 26.1209 25.0843 25.8948 24.626C25.7151 24.2619 25.4445 24.024 25.0837 23.912C24.7226 23.8006 24.2649 23.7748 23.7105 23.8347L25.2672 26.9903C25.6938 26.6713 25.9617 26.3124 26.0707 25.9129ZM28.2871 26.4099C27.9644 27.3489 27.3022 28.1418 26.3 28.7879L27.2653 30.7448L25.5206 31.5209L24.5727 29.5992C23.7795 29.8802 22.9943 30.0435 22.2169 30.0882C21.4392 30.1333 20.7009 30.0531 20.002 29.8482L19.9373 27.8563C21.3236 28.2143 22.6129 28.1782 23.8053 27.7479L21.9965 24.0812C21.1339 24.2215 20.3807 24.2877 19.7375 24.2802C19.0941 24.2727 18.4779 24.1092 17.8899 23.7908C17.3017 23.472 16.8191 22.9306 16.4423 22.1667C16.1292 21.5321 15.9975 20.8849 16.0474 20.2249C16.0975 19.5651 16.3133 18.9389 16.6955 18.346C17.0777 17.7536 17.6047 17.2502 18.2767 16.8365L17.3114 14.8798L19.0562 14.1037L20.0127 16.0428C20.7147 15.831 21.4176 15.719 22.1209 15.7071C22.8243 15.6953 23.4682 15.7888 24.0529 15.987L24.1177 17.9788C22.9373 17.6441 21.8276 17.6219 20.7888 17.9117L22.6759 21.737C23.5385 21.5974 24.277 21.5299 24.892 21.536C25.5068 21.5418 26.0983 21.6979 26.6666 22.0041C27.2347 22.3103 27.7015 22.8334 28.0667 23.5738C28.5363 24.5258 28.6096 25.4713 28.2871 26.4099Z" fill="#F7DE61"/>
</svg>

<svg xmlns="http://www.w3.org/2000/svg" width="45" height="46" fill="none"><path fill="#E9B522" d="M34.288 17.04C30.924 9.929 22.784 6.725 16.106 9.884s-9.364 11.485-6 18.596c3.364 7.11 11.505 10.314 18.182 7.156 6.678-3.16 9.364-11.485 6-18.596"/><path fill="#F7DE61" d="M24.21 39.56c-8.86.705-16.971-6.26-18.08-15.525-1.11-9.266 5.196-17.377 14.056-18.082s16.97 6.259 18.08 15.524c1.11 9.266-5.196 17.378-14.056 18.083M20.515 8.707c-7.407.59-12.68 7.372-11.752 15.118s7.71 13.57 15.117 12.98 12.68-7.371 11.752-15.118-7.709-13.57-15.116-12.98"/><path fill="#FFF2BD" d="M7.11 23.957C6.02 14.863 12.074 6.88 20.676 5.922q-.245.012-.491.03c-8.86.706-15.166 8.817-14.057 18.083 1.11 9.265 9.22 16.23 18.08 15.525q.247-.02.49-.048c-8.667.416-16.501-6.461-17.59-15.555"/><path fill="#CE9811" d="M20.516 8.707q-.216.018-.428.042c7.238-.336 13.777 5.41 14.687 13.006.91 7.597-4.143 14.265-11.324 15.076q.213-.008.43-.026c7.407-.59 12.679-7.371 11.752-15.118-.928-7.747-7.71-13.57-15.117-12.98"/><path fill="#CE9811" d="M28.815 26.674q-.484 1.409-1.988 2.378l.966 1.957-1.745.776-.948-1.922a8.5 8.5 0 0 1-2.356.489 6.5 6.5 0 0 1-2.215-.24l-.064-1.992q2.079.537 3.868-.108l-1.81-3.667q-1.293.21-2.258.199a3.9 3.9 0 0 1-1.848-.49q-.882-.478-1.447-1.623a3.7 3.7 0 0 1-.395-1.942q.075-.99.648-1.88.574-.888 1.581-1.509l-.965-1.957 1.745-.776.956 1.94a7.7 7.7 0 0 1 2.108-.336 5.7 5.7 0 0 1 1.932.28l.065 1.991q-1.77-.502-3.329-.067l1.887 3.826q1.294-.21 2.216-.201a3.8 3.8 0 0 1 1.775.468q.852.459 1.4 1.57.705 1.428.22 2.836m-8.798-4.535q.598.197 1.48.126l-1.678-3.402q-.657.486-.85 1.13-.193.645.146 1.333.305.616.902.813m6.581 4.038q.163-.6-.176-1.287-.27-.546-.811-.714-.542-.167-1.373-.078l1.557 3.156q.64-.479.803-1.077"/><path fill="#F7DE61" d="M19.49 21.875q.598.197 1.48.126L19.292 18.6q-.657.486-.85 1.13-.194.645.146 1.333.304.617.902.813m6.58 4.038q.164-.6-.175-1.287-.27-.546-.811-.714-.543-.167-1.373-.077l1.556 3.155q.64-.479.804-1.077m2.217.497q-.484 1.409-1.987 2.378l.965 1.957-1.744.776-.948-1.922a8.5 8.5 0 0 1-2.356.49 6.5 6.5 0 0 1-2.215-.24l-.065-1.993q2.08.537 3.868-.108l-1.808-3.667q-1.294.21-2.26.2a3.9 3.9 0 0 1-1.847-.49q-.882-.478-1.448-1.624a3.7 3.7 0 0 1-.395-1.942q.075-.99.648-1.879t1.582-1.51l-.966-1.956 1.745-.776.957 1.939a7.7 7.7 0 0 1 2.108-.336 5.7 5.7 0 0 1 1.932.28l.065 1.992q-1.77-.502-3.33-.067l1.888 3.825q1.294-.21 2.216-.201a3.8 3.8 0 0 1 1.775.468q.852.46 1.4 1.57.705 1.428.22 2.836"/></svg>
